!!! OTL: Berkowitz146
!!! Chapter: 1
!!! Section: I
!!! Page: 33
!!! Mode: 
!!! Encoder: DJB
**kern
*staff1
*I"Piano
=1-
*clefG2
*k[f#]
*G:
*M4/4
4r
4r
4r
8d/L
8e/J
=2
4.g/
8a/
4g/
8b\L
8cc\J
=3
4.dd\
8ee\
4dd\
8cc\L
8b\J
=4
4a/
4g/
4f#/
4g/
=5
8a/L
8g/
8f#/
8e/J
4d/
8d/L
8e/J
=6
4.g/
8a/
4g/
8b\L
8cc\J
=7
4.dd\
8ee\
4dd\
8cc\L
8b\J
=8
!!linebreak:original
4a/
8b\L
8cc\J
4b\
8a/L
8g/J
=9
8f#/L
8e/
8f#/
8g/J
4a/
8d/L
8e/J
=10
4.g/
8e/
4g/
4r
==
*-
